X:0328
T:Maggy Lawder
M:C|
L:1/16
I: :: ::
Q:1/4=80
Z:Jack Campin * www.campin.me.uk * 2009
K:D
  d3ed2f2  d3ed2f2           | e3f    gfed    Tc4 (e3f/g/)|\
  f2d2d2A2 d2e2d2f2          | a3b    abag    Tf4  a4     |
  g3ag2b2  f3gf2a2           | e3f   (gf)(ed) Tc4  e4     |\
 (dc)(BA) (BA)(GF) GFED  E2g2|(fga2)  e2f2     d4  D4    :|
 (fga2)    d2g2    fgaf  d3f | e3f   (gf)(ed) Tc4  e4     |\
 (fga2)    d2g2   (fga2) d2f2| a3b    abag    Tf4  a4     |
(Tgfga)    g2b2  (Tfefg) f2a2| e3f    gfed    Tc4  e4     |\
  dcBA     BAGF    GFED  E3g |(fga2) Te3f      d4  D4    :|
<end>
<start>
